src/icons/svg/verify.svg

<?xml version="1.0" standalone="no"?><svg t="1551969944602" class="icon" style="" viewBox="0 0 1024 1024" version="1.1" xmlns="http://www.w3.org/2000/svg" p-id="2916" xmlns:xlink="http://www.w3.org/1999/xlink" width="48" height="48"><path d="M515.011765 1024C352.376471 1024 60.235294 771.011765 54.211765 518.023529V231.905882C57.223529 186.729412 90.352941 150.588235 135.529412 144.564706c57.223529-6.023529 111.435294-18.070588 162.635294-39.152941C352.376471 90.352941 403.576471 60.235294 445.741176 24.094118c36.141176-27.105882 84.329412-30.117647 120.470589-6.02353 45.176471 36.141176 96.376471 63.247059 150.588235 84.329412 54.211765 18.070588 111.435294 30.117647 168.658824 39.152941 45.176471 9.035294 78.305882 45.176471 78.305882 90.352941 3.011765 96.376471 3.011765 195.764706-3.011765 292.141177C924.611765 846.305882 674.635294 1024 515.011765 1024z m271.058823-608.376471c18.070588-15.058824 18.070588-39.152941 3.011765-57.223529-15.058824-18.070588-42.164706-18.070588-57.223529-3.011765l-268.047059 252.988236-132.517647-141.552942c-15.058824-18.070588-42.164706-18.070588-57.22353-3.011764-18.070588 15.058824-18.070588 42.164706-3.011764 57.223529l162.635294 171.670588 9.035294 6.02353c15.058824 9.035294 36.141176 9.035294 48.188235-6.02353l295.152941-277.082353z" p-id="2917"></path></svg>

<svg class="icon" viewBox="0 0 1024 1024" xmlns="http://www.w3.org/2000/svg" width="48" height="48"><path d="M515.012 1024c-162.636 0-454.777-252.988-460.8-505.976V231.906c3.012-45.177 36.14-81.318 81.317-87.341 57.224-6.024 111.436-18.07 162.636-39.153 54.211-15.06 105.411-45.177 147.576-81.318 36.141-27.106 84.33-30.118 120.47-6.023C611.389 54.21 662.589 81.318 716.8 102.4c54.212 18.07 111.435 30.118 168.659 39.153 45.176 9.035 78.306 45.176 78.306 90.353 3.011 96.376 3.011 195.765-3.012 292.141C924.612 846.306 674.635 1024 515.012 1024zM786.07 415.624c18.07-15.06 18.07-39.153 3.011-57.224-15.058-18.07-42.164-18.07-57.223-3.012L463.812 608.376 331.294 466.824c-15.059-18.071-42.165-18.071-57.223-3.012C256 478.87 256 505.976 271.059 521.035l162.635 171.67 9.035 6.024c15.06 9.036 36.142 9.036 48.189-6.023L786.07 415.624z"/></svg>
